X: 14683
T: Gan Ainm
R: reel
M: 4/4
K: Gdorian
|:fg|agfd gfdc|Afdc A2GF|Acc/c/c Acfa|~g3a (3gag fd|
agfa gfdc|Afdc d2cA|GFGA FGAc|dAcA G2:|
|:Ac|dgga gfdc|((3A=Bc) de f2gf|dcAG FDCA,|C/C/C A,C FAcf|
dgga gfdc|Afdc d2cA|GFGA FGAc|dAcA G2:|

